src/icons/sign-out.svg

<svg xmlns="http://www.w3.org/2000/svg" width="24" height="24" fill="none"><path fill="currentColor" d="M12 4H5v16h7v-3h2v5H3V2h11v5h-2z"/><path fill="currentColor" d="M16.5 15.5 18 17l5-5-5-5-1.5 1.5L19 11H8v2h11z"/></svg>

<svg width="24" height="24" viewBox="0 0 24 24" fill="none" xmlns="http://www.w3.org/2000/svg">
<path d="M12 4H5V20H12V17H14V22H3V2H14V7H12V4Z" fill="black"/>
<path d="M16.5 15.5L18 17L23 12L18 7L16.5 8.5L19 11H8V13H19L16.5 15.5Z" fill="black"/>
</svg>
